X: 1
T: Ufaratsta
C: Genesis 28:14
O: Hassidic
M: C
L: 1/8
K: G
|: "G"DB GG GG GG | \
      DB GG GG GG | \
  "Em"GG FG "Am"A3 G | \
  "D7"FF EF "G"G4 :| \
  "G"dB "D7"cA "G"BG GG |
|     GG FG "D7"A4 | \
  "G"dB "D7"cA "G"BG GG | \
  "D7"AA GF "G"G3 B | \
  "G"d3B d3B | \
  kd2 kd2 kd2 kd2 | \
  "G"dd "C"ee "G"dd BG |
| "G"dd "C"ee "G"dd BG | \
|: "D7"cc2 c "G"BB2 B | \
   "D7"AA2 A "G"GBd2 | \
   "D7"cc2 c "G"BB2 B | \
   "Am"AA "D7"BA "G"G4 :|
